X:14136
T:Reel des Sucres
C:Joseph Allard
M:2/4
L:1/16
K:G
D2|GABc dedB|dedB dedB|cdcA BcBG|ABAF GFED|!
GABc dedB|dedB dedB|cdcA BcBG|ABAF G2:|!
|:Bd|gagf gdBd|g2f2 e2d2|cdcA BdBG|ABAF GFED|!
GABc d2Bd|efge dBGB|cdcA BdBG|ABAF G2:|!
